img/logo-apple.svg

<svg width="32" height="32" viewBox="0 0 32 32" fill="none" xmlns="http://www.w3.org/2000/svg">
<path d="M16 2C8.26625 2 2 8.26625 2 16C2 23.7337 8.26625 30 16 30C23.7337 30 30 23.7337 30 16C30 8.26625 23.7337 2 16 2ZM10.6875 22.1181C10.6016 22.2647 10.4786 22.386 10.3309 22.4699C10.1833 22.5538 10.0161 22.5974 9.84625 22.5963C9.67314 22.5978 9.50303 22.551 9.355 22.4613C9.24478 22.3974 9.14826 22.3124 9.07098 22.2111C8.9937 22.1098 8.93718 21.9943 8.90466 21.8711C8.87214 21.748 8.86426 21.6196 8.88148 21.4934C8.8987 21.3672 8.94068 21.2456 9.005 21.1356L9.96062 19.5469C10.0089 19.4649 10.0778 19.3969 10.1605 19.3498C10.2431 19.3026 10.3367 19.2779 10.4319 19.2781H10.5731C11.2662 19.2781 11.7513 19.695 11.8925 20.0987L10.6875 22.1181ZM18.7781 18.9931L12.52 19H8.36063C8.22976 19.0006 8.10015 18.9745 7.97965 18.9235C7.85915 18.8724 7.75027 18.7974 7.65963 18.7031C7.56898 18.6087 7.49845 18.4968 7.45232 18.3744C7.40618 18.2519 7.38541 18.1214 7.39125 17.9906C7.41125 17.4656 7.86937 17.0681 8.39125 17.0681H11.4062L14.9806 10.9838L13.8231 9.01188C13.5625 8.5625 13.6781 7.97 14.125 7.6875C14.2352 7.61625 14.3586 7.56801 14.4879 7.54569C14.6172 7.52337 14.7497 7.52742 14.8773 7.5576C15.005 7.58779 15.1253 7.64348 15.2309 7.72133C15.3365 7.79918 15.4253 7.89759 15.4919 8.01062L16.1106 9.0675H16.1175L16.7369 8.01062C16.8036 7.89817 16.8922 7.8003 16.9975 7.72284C17.1028 7.64538 17.2227 7.58991 17.3499 7.55976C17.4771 7.52961 17.609 7.52538 17.7379 7.54732C17.8668 7.56927 17.9899 7.61694 18.1 7.6875C18.5444 7.97 18.6588 8.5625 18.3962 9.01375L17.2388 10.9856L16.1138 12.9038L13.6706 17.07V17.0769H17.2712C17.7225 17.0769 18.2881 17.3194 18.5169 17.7094L18.5369 17.75C18.7388 18.0931 18.8531 18.3288 18.8531 18.6719C18.8498 18.7833 18.825 18.893 18.78 18.995L18.7781 18.9931ZM23.6375 19H21.9431V19.0069L23.1819 21.1138C23.3151 21.3356 23.3559 21.601 23.2955 21.8526C23.235 22.1043 23.0782 22.3222 22.8587 22.4594C22.7066 22.5521 22.5319 22.6012 22.3538 22.6012C22.1844 22.6012 22.0179 22.5573 21.8705 22.4738C21.723 22.3904 21.5997 22.2702 21.5125 22.125L19.6819 19.0088L18.5444 17.0713L17.0769 14.5625C16.8643 14.2043 16.7488 13.7969 16.7417 13.3804C16.7345 12.9639 16.8361 12.5528 17.0362 12.1875C17.3262 11.6756 17.5481 11.5413 17.5481 11.5413L20.8125 17.0625H23.6194C24.1444 17.0625 24.595 17.4663 24.6194 17.9844C24.6244 18.1161 24.6028 18.2475 24.5558 18.3707C24.5088 18.4938 24.4374 18.6062 24.3458 18.7011C24.2543 18.7959 24.1445 18.8713 24.0231 18.9227C23.9017 18.974 23.7712 19.0003 23.6394 19H23.6375Z" fill="white"/>
</svg>

<svg width="32" height="32" fill="none" xmlns="http://www.w3.org/2000/svg"><path d="M16 2C8.266 2 2 8.266 2 16s6.266 14 14 14 14-6.266 14-14S23.734 2 16 2zm-5.313 20.118a.967.967 0 01-.84.478.932.932 0 01-.492-.135.968.968 0 01-.35-1.325l.956-1.59a.545.545 0 01.47-.268h.142c.693 0 1.178.417 1.32.82l-1.206 2.02zm8.091-3.125L12.52 19H8.36a.966.966 0 01-.969-1.01c.02-.524.478-.922 1-.922h3.015l3.575-6.084-1.158-1.972c-.26-.45-.145-1.042.302-1.325a.973.973 0 011.367.324l.619 1.057h.006l.62-1.057a.974.974 0 011.363-.323c.444.282.559.875.296 1.326l-1.157 1.972-1.125 1.918-2.443 4.166v.007h3.6c.451 0 1.017.242 1.246.632l.02.041c.202.343.316.579.316.922a.864.864 0 01-.073.323l-.002-.002zm4.86.007h-1.695v.007l1.239 2.107a.988.988 0 01-.323 1.345.97.97 0 01-.989.015.98.98 0 01-.358-.349l-1.83-3.116-1.138-1.938-1.467-2.509a2.396 2.396 0 01-.04-2.374c.29-.512.511-.647.511-.647l3.265 5.521h2.806c.525 0 .976.404 1 .922A.98.98 0 0123.64 19h-.002z" fill="#fff"/></svg>
